icon-themes/sifr_svg/cmd/sc_open.svg

<?xml version="1.0" encoding="UTF-8" standalone="no"?>
<svg
   xmlns:dc="http://purl.org/dc/elements/1.1/"
   xmlns:cc="http://creativecommons.org/ns#"
   xmlns:rdf="http://www.w3.org/1999/02/22-rdf-syntax-ns#"
   xmlns:svg="http://www.w3.org/2000/svg"
   xmlns="http://www.w3.org/2000/svg"
   xmlns:sodipodi="http://sodipodi.sourceforge.net/DTD/sodipodi-0.dtd"
   xmlns:inkscape="http://www.inkscape.org/namespaces/inkscape"
   viewBox="0 0 16 16"
   version="1.1"
   id="svg5"
   sodipodi:docname="sc_open.svg"
   inkscape:version="0.92.1 r15371"
   inkscape:export-filename="/home/matthias/GIT/icons/sifr_svg/sc_open.png"
   inkscape:export-xdpi="96"
   inkscape:export-ydpi="96">
  <defs
     id="defs9" />
  <sodipodi:namedview
     pagecolor="#ffffff"
     bordercolor="#666666"
     borderopacity="1"
     objecttolerance="10"
     gridtolerance="10"
     guidetolerance="10"
     inkscape:pageopacity="0"
     inkscape:pageshadow="2"
     inkscape:window-width="1920"
     inkscape:window-height="1007"
     id="namedview7"
     showgrid="true"
     inkscape:zoom="20.85965"
     inkscape:cx="11.803996"
     inkscape:cy="-0.46035889"
     inkscape:window-x="0"
     inkscape:window-y="44"
     inkscape:window-maximized="1"
     inkscape:current-layer="svg5">
    <inkscape:grid
       type="xygrid"
       id="grid4486" />
  </sodipodi:namedview>
  <metadata
     id="metadata7838">
    <rdf:RDF>
      <cc:Work
         rdf:about="">
        <dc:format>image/svg+xml</dc:format>
        <dc:type
           rdf:resource="http://purl.org/dc/dcmitype/StillImage" />
        <dc:title />
        <cc:license
           rdf:resource="http://creativecommons.org/licenses/by-sa/4.0/" />
        <dc:rights>
          <cc:Agent>
            <dc:title>The Document Foundation</dc:title>
          </cc:Agent>
        </dc:rights>
        <dc:contributor>
          <cc:Agent>
            <dc:title>Matthias Freund</dc:title>
          </cc:Agent>
        </dc:contributor>
      </cc:Work>
      <cc:License
         rdf:about="http://creativecommons.org/licenses/by-sa/3.0/">
        <cc:permits
           rdf:resource="http://creativecommons.org/ns#Reproduction" />
        <cc:permits
           rdf:resource="http://creativecommons.org/ns#Distribution" />
        <cc:requires
           rdf:resource="http://creativecommons.org/ns#Notice" />
        <cc:requires
           rdf:resource="http://creativecommons.org/ns#Attribution" />
        <cc:permits
           rdf:resource="http://creativecommons.org/ns#DerivativeWorks" />
        <cc:requires
           rdf:resource="http://creativecommons.org/ns#ShareAlike" />
      </cc:License>
    </rdf:RDF>
  </metadata>
  <path
     inkscape:connector-curvature="0"
     style="display:inline;fill:#555753;fill-opacity:1;stroke:none"
     d="M 0.53125,5 C 0.24212,5 0,5.2421 0,5.5313 v 9.9375 C 0,15.7673 0.23264,16 0.53125,16 h 13.8125 c 0.2986,0 0.53125,-0.2326 0.53125,-0.5312 L 16,10.5529 c 0,-0.2891 -0.24212,-0.5312 -0.53125,-0.5312 H 3.875 L 3,13.5 C 3,13.777 2.777,14 2.5,14 2.223,14 2,13.777 2,13.5 V 8.5034 c 0,-0.277 0.223,-0.5 0.5,-0.5 H 2.96615 V 5 Z"
     id="rect3845-5-8"
     sodipodi:nodetypes="ccccccccccscccccc" />
  <path
     style="opacity:1;fill:#ffffff;fill-opacity:1;fill-rule:evenodd;stroke:none;stroke-width:4;stroke-linecap:square;stroke-linejoin:round;stroke-miterlimit:4;stroke-dasharray:none;stroke-opacity:1;paint-order:normal"
     d="m 5,2 h 5.12952 L 14,6 V 9 H 5 Z"
     id="rect4490"
     inkscape:connector-curvature="0"
     sodipodi:nodetypes="cccccc" />
  <path
     sodipodi:nodetypes="cccccccccccccccccc"
     inkscape:connector-curvature="0"
     id="path1234-3"
     d="M 4.8125,1 C 4.3541,1.0875 3.99178,1.5334 4,2 V 9 H 6 V 3 h 4 v 3 h 3 v 3 h 2 V 5.5625 C 15.006,5.2984 14.9024,5.0335 14.71875,4.8437 L 11.15625,1.28125 C 10.96647,1.09755 10.70156,0.99388 10.4375,1 H 5 C 4.9688,0.999 4.9375,0.999 4.9063,1 4.8751,0.999 4.8438,0.999 4.8126,1 Z"
     style="color:#000000;font-style:normal;font-variant:normal;font-weight:normal;font-stretch:normal;font-size:medium;line-height:normal;font-family:Sans;-inkscape-font-specification:Sans;text-indent:0;text-align:start;text-decoration:none;text-decoration-line:none;letter-spacing:normal;word-spacing:normal;text-transform:none;writing-mode:lr-tb;direction:ltr;baseline-shift:baseline;text-anchor:start;display:inline;overflow:visible;visibility:visible;fill:#555753;fill-opacity:1;stroke:none;stroke-width:1.99999988;marker:none;enable-background:accumulate" />
</svg>

<svg xmlns="http://www.w3.org/2000/svg" viewBox="0 0 16 16">
 <path
     style="fill:#555753"
     d="M 4.8125 1 C 4.3541 1.0875 3.99178 1.5334 4 2 L 4 9 L 6 9 L 6 3 L 10 3 L 10 6 L 13 6 L 13 9 L 15 9 L 15 5.5625 C 15.006 5.2984 14.9024 5.03355 14.71875 4.84375 L 11.15625 1.28125 C 10.96647 1.09755 10.70156 0.99388 10.4375 1 L 5 1 C 4.9688 0.999 4.93745 0.999 4.90625 1 C 4.87505 0.999 4.8437 0.999 4.8125 1 z M 0.53125 5 C 0.24212 5 0 5.24205 0 5.53125 L 0 15.46875 C 0 15.76725 0.23264 16 0.53125 16 L 14.34375 16 C 14.64235 16 14.875 15.76735 14.875 15.46875 L 16 10.552734 C 16 10.263634 15.75788 10.021484 15.46875 10.021484 L 3.875 10.021484 L 3 13.5 C 3 13.777 2.777 14 2.5 14 C 2.223 14 2 13.777 2 13.5 L 2 8.5039062 C 2 8.2269063 2.223 8.0039062 2.5 8.0039062 L 2.9667969 8.0039062 L 2.9667969 5 L 0.53125 5 z "
     />
 </svg>
